X: 1
T: Neppendorfer Laendler
M: 3/4
L: 1/8
R: mazurka
K: Gmaj
|: g f>g |e>g c>g f>e | d>g B>e d>B | c>B A>e d>c | (3Bcd G>g f>g |
e>g c2 (3gfe | d>g B>g f>e | e>d f>e (3cBA | G2 G :|
|: B A>G |c>B A>e d>c | B>D G2 B>G | (3FGA D>d c>A | G>D (3GAB A>B |
c>B A>e d>c | B>D G>d B>G | F>D F>d c>A | G3 :|
